!!!OTL: Graf und Nonne (Die Nonne)
!!!OTL-incipit:Es welken alle Blaetter,
!!!ARE: Europa, Mitteleuropa, Deutschland (BRD), Franken
!!!YOR: 8, S. 290
!!    1945 aufgezeichnet
!!!SCT: Q0155I.
!!!TXL: @@DE
!!!YEM: Copyright 1995, estate of Helmut Schaffrath.
**kern	**text
*ICvox	*
*M4/4	*
*met(c)	*
*k[f#]	*
*G:	*
{4d	Es
=1	=1
4g	wel-
4d	-ken
4B	al-
4d	-le
=2	=2
(<4g	Blät-
4b)	.
4b}	-ter,
{4dd	sie
=3	=3
4.cc	falln
8b	her-
4a	-ab
(8a/L	auf
8ccJ)	.
=4	=4
2b	mich;
4r}	.
{8ddL	ja
8ccJ	weil
=5	=5
4b	mich
4b	mein
4b	Schatʒ
(8ddL	ver-
8bJ)	.
=6	=6
4cc	-las-
4dd	-sen
4cc}	hat,
{(8ccL	ja
8bJ)	weil
=7	=7
4a	mich
4a	mein
4a	Schatz
(8ccL	ver-
8aJ)	.
=8	=8
4b	-las-
4cc	-sen
4b}	hat,
{(8ddL	das
8ccJ)	.
=9	=9
4b	krän-
4b	-ket,
4a	krän-
(8aL	-ket
8ccJ)	.
=10	=10
2b	mich.
4r}	.
==	==
!!!AGN: Ballade, Standesunterschied, vergebliche Werbung, Liebe, Klage
!! Letzten Takt der dritten Zeile rhythmisch korrigiert. Schlusspause
!!    ergaenzt.
!!!ONB: ESAC (Essen Associative Code) Database: BALLADE
!!!AMT: simple quadruple
!!!AIN: vox
!!!EED: Helmut Schaffrath
!!!EEV: 1.0
!!!source: Deutsche Volkslieder mit ihren Melodien. Herausgegeben vom Deutschen Volksliedarchiv. Achter Teil. Freiburg/Breisgau 1988.
!!!page: 290
!!!ENC: Anna Maria Matuszewska
!!!EEV: 2025/03/10
*-	*-
